X: 28730
T: My Former Wife
R: jig
M: 6/8
K: Adorian
|:EAA ABc|BDB c2A|BGE E3|GED D3|
EAA ABc|BDB GB/c/d|ede gdB|1 BAG A2G:|2 BAG A2d||
|:efg a3|bag a3|ede g3|gba ged|
efg a3|bag a3|ede gdB|BAG A2d|
efg a3|bag a2g|ede g2a|gba ged|
efg abc'|bag a2g|edd gdB|BAG A3||

